public/icons/container_icon.svg

<svg width="330" height="330" viewBox="0 0 330 330" fill="none" xmlns="http://www.w3.org/2000/svg">
<g clip-path="url(#clip0_3_291)">
<path d="M45.4965 43.7357C56.6705 42.405 68.6567 43.2852 79.9386 43.2888L145.165 43.306L236.215 43.2979C252.922 43.2942 269.972 42.5564 286.633 43.6432C288.637 44.954 290.334 46.2647 291.764 48.2019C296.213 54.229 299.511 61.4508 303.07 68.0418L320.522 100.152C323.307 100.108 326.504 99.76 328.774 101.666C330.475 103.095 330.464 106.116 330.575 108.205C330.827 112.965 332.054 130.378 328.685 133.879C326.438 136.215 322.232 135.673 319.251 135.695C316.347 160.302 311.844 184.954 308.077 209.454C305.513 226.119 303.955 243.92 299.88 260.252C298.973 263.883 297.74 267.254 295.496 270.279C290.713 276.725 283.984 279.118 276.344 280.303C278.795 285.011 279.784 290.231 278.628 295.458C277.436 300.789 274.165 305.424 269.542 308.334C263.859 311.923 258.414 311.965 252.062 310.536C246.792 307.965 242.4 304.671 239.945 299.167C237.003 292.571 238.492 286.52 240.873 280.057C190.573 279.394 140.146 279.942 89.8391 280.049C92.4452 285.739 93.8185 291.729 91.7001 297.846C89.9007 303.038 85.7908 307.1 80.8342 309.35C75.8215 311.625 70.2295 311.898 65.0807 309.889C60.1332 307.958 55.9054 304.283 53.7907 299.355C51.0431 292.95 52.314 286.537 54.7633 280.292C49.6354 279.511 45.0704 278.281 40.8073 275.193C37.166 272.574 34.4239 268.892 32.9564 264.652C28.8129 252.53 27.9871 236.313 26.1044 223.464C21.8159 194.202 17.7794 164.878 13.1083 135.676C11.551 135.658 9.98554 135.639 8.43185 135.521C6.31615 135.361 5.177 134.562 3.83597 132.988C2.06137 127.706 1.25797 109.369 2.87284 103.944C4.44575 98.6605 10.3508 102.088 12.2526 98.5372L29.393 66.8362C32.8005 60.5616 36.052 53.3588 40.4891 47.755C41.8325 46.0572 43.6926 44.8869 45.4965 43.7357Z" fill="black"/>
<path d="M23.8647 135.5C56.0816 135.916 88.3518 135.537 120.574 135.54L308.896 135.517C306.006 149.155 304.447 163.367 302.326 177.155L291.027 251.174C290.34 255.653 289.773 260.39 287.031 264.16C285.249 266.611 282.577 268.437 279.566 268.912C270.548 270.332 260.146 269.383 250.966 269.386L193.975 269.396L101.077 269.381C85.656 269.375 69.7393 270.19 54.3647 269.251C51.5782 269.08 49.4072 268.223 47.1746 266.551C44.2286 264.346 43.0764 261.196 42.1237 257.755C38.7471 245.552 37.8996 231.277 36.0586 218.714L23.8647 135.5Z" fill="#FED300"/>
<path d="M82.3007 155.601C84.1119 155.86 86.3237 156.432 87.5066 157.934C88.3931 159.06 88.5617 160.608 88.7367 161.987C90.6375 176.983 91.1307 192.403 92.3598 207.492C93.1349 217.009 95.5724 231.586 94.6496 240.392C94.4248 242.543 92.5846 243.816 91.0482 245.14C89.2099 244.926 87.1631 244.415 85.8849 243.006C84.8797 241.897 84.6503 240.321 84.4427 238.867C82.3234 223.983 81.9155 208.408 80.7561 193.402C79.9621 183.128 77.9325 171.427 78.6105 161.193C78.8 158.336 80.2657 157.355 82.3007 155.601Z" fill="black"/>
<path d="M246.106 155.613C247.709 155.824 249.699 156.248 250.895 157.398C252.974 159.397 252.582 162.578 252.509 165.239C252.135 178.907 250.311 192.824 249.255 206.48C248.438 217.069 248.646 230.361 246.193 240.447C245.714 242.419 244.77 243.545 243.321 244.92C242.777 244.932 242.224 244.944 241.682 244.902C239.503 244.733 238.426 244.02 237.033 242.506C236.178 239.9 236.372 237.169 236.52 234.461C237.441 217.598 239.22 200.675 240.575 183.836C241.136 176.866 240.901 165.752 242.899 159.318C243.343 157.886 245.019 156.593 246.106 155.613Z" fill="black"/>
<path d="M190.958 155.594C193.051 155.904 194.361 156.3 196.097 157.527C197.224 159.078 197.63 160.32 197.721 162.237C198.518 179.016 197.79 196.157 197.784 212.987C197.78 220.739 198.934 231.976 197.503 239.449C197.184 241.113 195.64 242.598 194.529 243.809C192.865 243.759 190.354 243.663 189.133 242.34C188.195 241.326 187.792 240.492 187.655 239.114C186.788 230.36 187.438 221.024 187.435 212.203C187.428 196.316 187.19 180.377 187.513 164.496C187.605 159.96 187.664 158.765 190.958 155.594Z" fill="black"/>
<path d="M139.309 155.515C141.335 155.833 143.2 156.421 144.586 157.986C146.035 159.622 146.028 231.735 145.382 239.19C145.179 241.533 143.333 242.673 141.643 244.064C140.036 243.82 137.753 243.447 136.634 242.126C135.848 241.196 135.504 240.288 135.382 239.08C134.162 227.018 135.277 213.842 135.304 201.652C135.334 188.362 134.226 173.93 135.644 160.759C135.93 158.1 137.354 157.067 139.309 155.515Z" fill="black"/>
<path d="M13.2844 110.909L319.799 110.934L319.784 124.735L13.336 124.798C13.2064 120.174 13.2862 115.534 13.2844 110.909Z" fill="#FED300"/>
<path d="M241.676 53.8591L283.303 53.8618C292.31 68.7786 300.269 84.7787 308.362 100.221L254.466 100.346C249.786 84.9872 246.399 69.2301 241.676 53.8591Z" fill="#FED300"/>
<path d="M144.894 53.8102L182.737 53.8755C183.74 59.4385 188.215 97.5854 186.613 100.13L184.394 100.26L139.787 100.27C141.666 84.8432 142.378 69.1386 144.894 53.8102Z" fill="#FED300"/>
<path d="M95.5168 53.8174C108.383 54.0014 121.271 53.8609 134.14 53.8745C133.119 69.3071 130.955 84.7969 129.278 100.179L120.619 100.239L82.9214 100.255C86.9488 84.7298 91.1476 69.25 95.5168 53.8174Z" fill="#FED300"/>
<path d="M48.7595 53.8229L84.711 53.8709L72.4356 100.296L58.281 100.251L23.8135 100.27C30.8857 84.4226 40.3774 69.0534 48.7595 53.8229Z" fill="#FED300"/>
<path d="M193.555 53.8655L231.515 53.8818C235.656 69.3181 239.712 84.777 243.679 100.258L197.941 100.29C196.372 84.8259 194.91 69.3507 193.555 53.8655Z" fill="#FED300"/>
<path d="M69.907 281.269C75.1537 279.98 80.4692 283.119 81.8751 288.336C83.2811 293.554 80.2634 298.939 75.0793 300.462C71.6221 301.478 67.8847 300.543 65.3139 298.017C62.7423 295.49 61.7397 291.77 62.6933 288.294C63.6469 284.817 66.4071 282.129 69.907 281.269Z" fill="#FEFEFE"/>
<path d="M256.141 281.391C261.404 279.968 266.826 283.074 268.263 288.335C269.699 293.597 266.606 299.028 261.349 300.478C256.076 301.932 250.622 298.825 249.182 293.546C247.741 288.267 250.859 282.82 256.141 281.391Z" fill="#FEFEFE"/>
</g>
<defs>
<clipPath id="clip0_3_291">
<rect width="330" height="330" fill="white"/>
</clipPath>
</defs>
</svg>

<svg xmlns="http://www.w3.org/2000/svg" width="330" height="330" fill="none" viewBox="0 0 330 330"><g clip-path="url(#a)"><path fill="#000" d="M45.497 43.736c11.173-1.331 23.16-.45 34.442-.447l65.226.017 91.05-.008c16.707-.004 33.757-.742 50.418.345 2.004 1.311 3.701 2.622 5.131 4.559 4.449 6.027 7.747 13.249 11.306 19.84l17.452 32.11c2.785-.044 5.982-.392 8.252 1.514 1.701 1.429 1.69 4.45 1.801 6.539.252 4.76 1.479 22.173-1.89 25.674-2.247 2.336-6.453 1.794-9.434 1.816-2.904 24.607-7.407 49.259-11.174 73.759-2.564 16.665-4.122 34.466-8.197 50.798-.907 3.631-2.14 7.002-4.384 10.027-4.783 6.446-11.512 8.839-19.152 10.024 2.451 4.708 3.44 9.928 2.284 15.155a20.5 20.5 0 0 1-9.086 12.876c-5.683 3.589-11.128 3.631-17.48 2.202-5.27-2.571-9.662-5.865-12.117-11.369-2.942-6.596-1.453-12.647.928-19.11-50.3-.663-100.727-.115-151.034-.008 2.606 5.69 3.98 11.68 1.861 17.797-1.8 5.192-5.91 9.254-10.866 11.504-5.013 2.275-10.605 2.548-15.753.539-4.948-1.931-9.176-5.606-11.29-10.534-2.748-6.405-1.477-12.818.972-19.063-5.128-.781-9.693-2.011-13.956-5.099a21.74 21.74 0 0 1-7.85-10.541c-4.144-12.122-4.97-28.339-6.853-41.188-4.288-29.262-8.325-58.586-12.996-87.788-1.557-.018-3.122-.037-4.676-.155-2.116-.16-3.255-.959-4.596-2.533-1.775-5.282-2.578-23.619-.963-29.044 1.573-5.284 7.478-1.856 9.38-5.407l17.14-31.7c3.407-6.275 6.659-13.478 11.096-19.082 1.344-1.698 3.204-2.868 5.008-4.02"/><path fill="#fed300" d="M23.865 135.5c32.217.416 64.487.037 96.709.04l188.322-.023c-2.89 13.638-4.449 27.85-6.57 41.638l-11.299 74.019c-.687 4.479-1.254 9.216-3.996 12.986-1.782 2.451-4.454 4.277-7.465 4.752-9.018 1.42-19.42.471-28.6.474l-56.991.01-92.898-.015c-15.421-.006-31.338.809-46.712-.13-2.787-.171-4.958-1.028-7.19-2.7-2.946-2.205-4.099-5.355-5.051-8.796-3.377-12.203-4.224-26.478-6.065-39.041z"/><path fill="#000" d="M82.3 155.601c1.812.259 4.024.831 5.207 2.333.886 1.126 1.055 2.674 1.23 4.053 1.9 14.996 2.394 30.416 3.623 45.505.775 9.517 3.212 24.094 2.29 32.9-.225 2.151-2.065 3.424-3.602 4.748-1.838-.214-3.885-.725-5.163-2.134-1.005-1.109-1.235-2.685-1.442-4.139-2.12-14.884-2.528-30.459-3.687-45.465-.794-10.274-2.823-21.975-2.145-32.209.189-2.857 1.655-3.838 3.69-5.592m163.805.012c1.603.211 3.593.635 4.789 1.785 2.079 1.999 1.687 5.18 1.614 7.841-.374 13.668-2.198 27.585-3.254 41.241-.817 10.589-.609 23.881-3.062 33.967-.479 1.972-1.423 3.098-2.872 4.473-.544.012-1.097.024-1.639-.018-2.179-.169-3.256-.882-4.649-2.396-.855-2.606-.661-5.337-.513-8.045.921-16.863 2.7-33.786 4.055-50.625.561-6.97.326-18.084 2.324-24.518.444-1.432 2.12-2.725 3.207-3.705m-55.148-.019c2.093.31 3.403.706 5.139 1.933 1.127 1.551 1.533 2.793 1.624 4.71.797 16.779.069 33.92.063 50.75-.004 7.752 1.15 18.989-.281 26.462-.319 1.664-1.863 3.149-2.974 4.36-1.664-.05-4.175-.146-5.396-1.469-.938-1.014-1.341-1.848-1.478-3.226-.867-8.754-.217-18.09-.22-26.911-.007-15.887-.245-31.826.078-47.707.092-4.536.151-5.731 3.445-8.902m-51.649-.079c2.026.318 3.891.906 5.277 2.471 1.449 1.636 1.442 73.749.796 81.204-.203 2.343-2.049 3.483-3.739 4.874-1.607-.244-3.89-.617-5.009-1.938-.786-.93-1.13-1.838-1.252-3.046-1.22-12.062-.105-25.238-.078-37.428.03-13.29-1.078-27.722.34-40.893.286-2.659 1.71-3.692 3.665-5.244"/><path fill="#fed300" d="m13.284 110.909 306.515.025-.015 13.801-306.448.063c-.13-4.624-.05-9.264-.052-13.889M241.676 53.86l41.627.002c9.007 14.917 16.966 30.917 25.059 46.359l-53.896.125c-4.68-15.359-8.067-31.116-12.79-46.487m-96.782-.049 37.843.066c1.003 5.563 5.478 43.71 3.876 46.254l-2.219.13-44.607.01c1.879-15.427 2.591-31.131 5.107-46.46m-49.377.007c12.866.184 25.754.044 38.623.057-1.021 15.433-3.185 30.923-4.862 46.305l-8.659.06-37.698.016a2179 2179 0 0 1 12.596-46.438m-46.757.006 35.951.048-12.275 46.425-14.155-.045-34.467.019c7.072-15.847 16.563-31.217 24.946-46.447m144.795.043 37.96.016a4265 4265 0 0 1 12.164 46.376l-45.738.032a3371 3371 0 0 1-4.386-46.425"/><path fill="#fefefe" d="M69.907 281.269a9.94 9.94 0 0 1 11.968 7.067 9.94 9.94 0 0 1-6.796 12.126 9.94 9.94 0 0 1-9.765-2.445 9.943 9.943 0 0 1 4.593-16.748m186.234.122c5.263-1.423 10.685 1.683 12.122 6.944s-1.657 10.693-6.914 12.143c-5.273 1.454-10.727-1.653-12.167-6.932-1.441-5.279 1.677-10.726 6.959-12.155"/></g><defs><clipPath id="a"><path fill="#fff" d="M0 0h330v330H0z"/></clipPath></defs></svg>
